symbols/web/masks/materialsymbolsrounded/masks_wght600grad200_48px.svg

<svg xmlns="http://www.w3.org/2000/svg" height="48" width="48"><path d="M24 37.4q-2 0-3.9-.575T16.55 35.2q-2.4-.2-4.975-1.075Q9 33.25 6.85 31.3q-2.15-1.95-3.525-5.175Q1.95 22.9 1.95 18v-2.05q0-2.3 1.55-3.825Q5.05 10.6 7.3 10.6q1.95 0 3.45 1.4 1.5 1.4 1.8 3.55 1.5-.45 2.675-.875Q16.4 14.25 17.3 13.7q1.65-.85 3.15-1.45t3.55-.6q2.05 0 3.55.6t3.2 1.5q.85.45 2.025.9 1.175.45 2.675.9.3-2.2 1.8-3.575T40.7 10.6q2.25 0 3.8 1.525 1.55 1.525 1.55 3.825V18q0 4.9-1.4 8.1-1.4 3.2-3.525 5.175-2.125 1.975-4.7 2.85T31.5 35.2q-1.7 1.05-3.6 1.625-1.9.575-3.9.575Zm-11.95-7.15q-1.05-1.45-1.8-3.3-.75-1.85-.75-4.05v-6.95q0-1-.6-1.6-.6-.6-1.6-.6-.95 0-1.575.6t-.625 1.6V18q0 6.25 2.5 9.025 2.5 2.775 4.45 3.225Zm11.95 4q4.5 0 7.925-3.425T35.35 22.9v-4.1q-1.95-.45-3.575-1.075Q30.15 17.1 29.1 16.45q-1.55-.9-2.675-1.275Q25.3 14.8 24 14.8q-1.3 0-2.4.375-1.1.375-2.7 1.275-1.05.6-2.65 1.275-1.6.675-3.6 1.075v4.1q0 4.5 3.425 7.925T24 34.25Zm11.95-4q1.95-.45 4.45-3.225T42.9 18v-2.05q0-1-.6-1.6-.6-.6-1.55-.6-1 0-1.625.6t-.625 1.6v6.95q0 2.2-.675 4.05-.675 1.85-1.875 3.3Zm-17.1-8.3q.7-.25 1.275-.575.575-.325 1.075-.625.75-.45 1.35-.725.6-.275 1.45-.275t1.45.275q.6.275 1.4.725.55.35 1.1.65.55.3 1.2.55.5.2.925-.05.425-.25.425-.9 0-.2-.175-.45t-.375-.35q-.65-.25-1.125-.5t-.875-.55l-1.8-.9q-.9-.45-2.15-.45t-2.15.45l-1.8.9q-.5.35-.925.6-.425.25-1.025.45-.25.1-.4.325-.15.225-.15.525 0 .5.375.825.375.325.925.075ZM24 24.5Z"/></svg>

<svg xmlns="http://www.w3.org/2000/svg" height="48" width="48"><path d="M24 37.4Q22 37.4 20.1 36.825Q18.2 36.25 16.55 35.2Q14.15 35 11.575 34.125Q9 33.25 6.85 31.3Q4.7 29.35 3.325 26.125Q1.95 22.9 1.95 18V15.95Q1.95 13.65 3.5 12.125Q5.05 10.6 7.3 10.6Q9.25 10.6 10.75 12Q12.25 13.4 12.55 15.55Q14.05 15.1 15.225 14.675Q16.4 14.25 17.3 13.7Q18.95 12.85 20.45 12.25Q21.95 11.65 24 11.65Q26.05 11.65 27.55 12.25Q29.05 12.85 30.75 13.75Q31.6 14.2 32.775 14.65Q33.95 15.1 35.45 15.55Q35.75 13.35 37.25 11.975Q38.75 10.6 40.7 10.6Q42.95 10.6 44.5 12.125Q46.05 13.65 46.05 15.95V18Q46.05 22.9 44.65 26.1Q43.25 29.3 41.125 31.275Q39 33.25 36.425 34.125Q33.85 35 31.5 35.2Q29.8 36.25 27.9 36.825Q26 37.4 24 37.4ZM12.05 30.25Q11 28.8 10.25 26.95Q9.5 25.1 9.5 22.9V15.95Q9.5 14.95 8.9 14.35Q8.3 13.75 7.3 13.75Q6.35 13.75 5.725 14.35Q5.1 14.95 5.1 15.95V18Q5.1 24.25 7.6 27.025Q10.1 29.8 12.05 30.25ZM24 34.25Q28.5 34.25 31.925 30.825Q35.35 27.4 35.35 22.9V18.8Q33.4 18.35 31.775 17.725Q30.15 17.1 29.1 16.45Q27.55 15.55 26.425 15.175Q25.3 14.8 24 14.8Q22.7 14.8 21.6 15.175Q20.5 15.55 18.9 16.45Q17.85 17.05 16.25 17.725Q14.65 18.4 12.65 18.8V22.9Q12.65 27.4 16.075 30.825Q19.5 34.25 24 34.25ZM35.95 30.25Q37.9 29.8 40.4 27.025Q42.9 24.25 42.9 18V15.95Q42.9 14.95 42.3 14.35Q41.7 13.75 40.75 13.75Q39.75 13.75 39.125 14.35Q38.5 14.95 38.5 15.95V22.9Q38.5 25.1 37.825 26.95Q37.15 28.8 35.95 30.25ZM18.85 21.95Q19.55 21.7 20.125 21.375Q20.7 21.05 21.2 20.75Q21.95 20.3 22.55 20.025Q23.15 19.75 24 19.75Q24.85 19.75 25.45 20.025Q26.05 20.3 26.85 20.75Q27.4 21.1 27.95 21.4Q28.5 21.7 29.15 21.95Q29.65 22.15 30.075 21.9Q30.5 21.65 30.5 21Q30.5 20.8 30.325 20.55Q30.15 20.3 29.95 20.2Q29.3 19.95 28.825 19.7Q28.35 19.45 27.95 19.15Q27.05 18.7 26.15 18.25Q25.25 17.8 24 17.8Q22.75 17.8 21.85 18.25Q20.95 18.7 20.05 19.15Q19.55 19.5 19.125 19.75Q18.7 20 18.1 20.2Q17.85 20.3 17.7 20.525Q17.55 20.75 17.55 21.05Q17.55 21.55 17.925 21.875Q18.3 22.2 18.85 21.95ZM24 24.5Q24 24.5 24 24.5Q24 24.5 24 24.5Q24 24.5 24 24.5Q24 24.5 24 24.5Q24 24.5 24 24.5Q24 24.5 24 24.5Q24 24.5 24 24.5Q24 24.5 24 24.5Q24 24.5 24 24.5Q24 24.5 24 24.5Q24 24.5 24 24.5Q24 24.5 24 24.5Z"/></svg>
